svg/u1f438.svg

<svg viewBox="0 0 128 128" xmlns="http://www.w3.org/2000/svg">
  <path d="M14.16,48.37c-0.43,4.5-10,10.84-9.57,26.89s13.09,44.06,57.72,44.77 c44.63,0.7,60.96-27.31,61.1-46.6c0.13-17.88-8.58-21.43-9.57-26.04c-0.84-3.94,6.76-21.96-10.28-28.44 C83.45,11.3,75.96,30.63,75.4,31.05c-0.56,0.42-6.05,0.7-10.84,0.7s-10,0-10.56-0.56c-0.56-0.56-12.81-19.99-30.55-11.83 C6.81,27.03,14.44,45.41,14.16,48.37z" fill="#B7D019"/>
  <path d="M103.08,42.36c0,5.29-3,9.76-8.02,9.57c-4.33-0.16-7.84-4.29-7.84-9.57s3.51-9.49,7.84-9.57 C100.17,32.69,103.08,37.07,103.08,42.36z" fill="#2F2F2F"/>
  <path d="M41.89,41.61c0.28,6.76-3,10.14-8.02,10.04c-4.22-0.08-7.56-3.19-7.65-9.67 c-0.08-5.34,1.97-9.48,7.65-9.67C38.09,32.18,41.67,36.28,41.89,41.61z" fill="#2F2F2F"/>
  <path d="M53.29,63.5c-0.81,1.79-3.06,2.35-4.57,1.48c-1.5-0.87-1.91-3.23-0.93-4.93 c0.98-1.7,2.65-1.96,3.87-1.48C53.29,59.21,54.49,60.85,53.29,63.5z" fill="#2F2F2F"/>
  <path d="M80.33,60.55c0.77,1.86-0.16,4.04-1.94,4.57c-1.78,0.53-3.69-0.61-4.26-2.54 c-0.57-1.93,0.14-3.61,1.87-4.3C77.13,57.84,79.19,57.8,80.33,60.55z" fill="#2F2F2F"/>
  <path d="M27.44,78.31l0.38,2.72c0,0,10.51,10.98,35.85,11.36c26,0.39,37.26-12.29,37.26-12.29l-11.64-5.63 c0,0-11.07,4.69-25.34,4.41c-14.27-0.28-28.34-4.41-28.34-4.41L27.44,78.31z" fill="#FF6011"/>
  <path d="M104.59,71.92c-3.28-4.79-7.23-0.43-13.42,1.88c-3.43,1.28-5.7,2.02-5.7,2.02s5.09,0.99,7.34,2.21 s6.17,3.89,6.17,3.89S107.35,75.96,104.59,71.92z" fill="#865B51"/>
  <path d="M24.81,71.36c-3.94,2.63,3.02,9.68,3.02,9.68s2.15-1.98,5.06-3.2s7.78-2.1,7.78-2.1 s-5.63-1.27-8.9-3.16C30.08,71.62,27.06,69.86,24.81,71.36z" fill="#865B51"/>
</svg>

<svg viewBox="0 0 128 128" xmlns="http://www.w3.org/2000/svg">
  <defs/>
  <path d="M14.16,48.37 C13.73,52.87 4.16,59.21 4.59,75.26 C5.02,91.31 17.68,119.32 62.31,120.03 C106.94,120.73 123.27,92.72 123.41,73.43 C123.54,55.55 114.83,52 113.84,47.39 C113,43.45 120.6,25.43 103.56,18.95 C83.45,11.3 75.96,30.63 75.4,31.05 C74.84,31.47 69.35,31.75 64.56,31.75 C59.77,31.75 54.56,31.75 54,31.19 C53.44,30.63 41.19,11.2 23.45,19.36 C6.81,27.03 14.44,45.41 14.16,48.37 Z" fill="#B7D019"/>
  <path d="M103.08,42.36 C103.08,47.65 100.08,52.12 95.06,51.93 C90.73,51.77 87.22,47.64 87.22,42.36 C87.22,37.08 90.73,32.87 95.06,32.79 C100.17,32.69 103.08,37.07 103.08,42.36 Z" fill="#2F2F2F"/>
  <path d="M41.89,41.61 C42.17,48.37 38.89,51.75 33.87,51.65 C29.65,51.57 26.31,48.46 26.22,41.98 C26.14,36.64 28.19,32.5 33.87,32.31 C38.09,32.18 41.67,36.28 41.89,41.61 Z" fill="#2F2F2F"/>
  <path d="M53.29,63.5 C52.48,65.29 50.23,65.85 48.72,64.98 C47.22,64.11 46.81,61.75 47.79,60.05 C48.77,58.35 50.44,58.09 51.66,58.57 C53.29,59.21 54.49,60.85 53.29,63.5 Z" fill="#2F2F2F"/>
  <path d="M80.33,60.55 C81.1,62.41 80.17,64.59 78.39,65.12 C76.61,65.65 74.7,64.51 74.13,62.58 C73.56,60.65 74.27,58.97 76,58.28 C77.13,57.84 79.19,57.8 80.33,60.55 Z" fill="#2F2F2F"/>
  <path d="M27.44,78.31 L27.82,81.03 C27.82,81.03 38.33,92.01 63.67,92.39 C89.67,92.78 100.93,80.1 100.93,80.1 L89.29,74.47 C89.29,74.47 78.22,79.16 63.95,78.88 C49.68,78.6 35.61,74.47 35.61,74.47 L27.44,78.31 Z" fill="#FF6011"/>
  <path d="M104.59,71.92 C101.31,67.13 97.36,71.49 91.17,73.8 C87.74,75.08 85.47,75.82 85.47,75.82 C85.47,75.82 90.56,76.81 92.81,78.03 C95.06,79.25 98.98,81.92 98.98,81.92 C98.98,81.92 107.35,75.96 104.59,71.92 Z" fill="#865B51"/>
  <path d="M24.81,71.36 C20.87,73.99 27.83,81.04 27.83,81.04 C27.83,81.04 29.98,79.06 32.89,77.84 C35.8,76.62 40.67,75.74 40.67,75.74 C40.67,75.74 35.04,74.47 31.77,72.58 C30.08,71.62 27.06,69.86 24.81,71.36 Z" fill="#865B51"/>
</svg>
